wp-content/themes/angry-duck/dist/images/icon-habanero.svg

<svg enable-background="new 0 0 12.7 16.6" viewBox="0 0 12.7 16.6" xmlns="http://www.w3.org/2000/svg"><path d="m.1 6.9c.3-1.6 1.3-2.9 2.8-3.5.9-.4 1.9-.3 2.6.3.1.1.1.3 0 .4-.1.2-.2.2-.4.1-.6-.5-1.3-.6-2-.3-1.2.6-2.1 1.8-2.4 3.1-.3 1.5 0 3.1.8 4.5 0 0 0 .1.1.1 0 0 .1.5.2 1.2.3 1.4 1.2 2.6 2.4 3.2.9.4 2.5-.8 3-1.4 0 0 .1-.1.2-.1.6-.1 1.2-.4 1.7-.9 1-.7 1.7-1.8 2-3v-.1s0-.1.1-.1c.8-.8 1.1-1.9.9-2.9-.4-1.4-2.3-2.1-2.3-2.1-.2 0-.3-.2-.3-.4.1-.1.2-.2.4-.2.1 0 2.2.8 2.7 2.5.3 1.2-.1 2.5-1 3.4v.1c-.3 1.3-1 2.5-2.1 3.3-.5.5-1.2.8-1.9 1-.8.8-1.8 1.4-3 1.5-.2 0-.4 0-.6-.1-1.4-.7-2.5-2-2.7-3.6-.1-.6-.2-1-.2-1.2-.9-1.4-1.3-3.1-1-4.8zm4.2-1.5c.4-.4.9-.5 1.4-.4s1 .5 1.2 1c0 .1.1.2.2.3.1 0 .2 0 .3-.1.5-.4 1.3-.4 1.8 0 .1 0 .1.1.2.1s.2 0 .2-.1c.1-.1.1-.3 0-.4-.5-.6-1.5-.7-2.2-.3-.4-.5-.9-.9-1.5-1.1-.7-.2-1.5 0-2 .5-.1.1-.1.3 0 .4.1.2.3.2.4.1zm5.8 1.2c-.1.1-.1.3 0 .4.3.4 1.1 1.5.7 2.2-.1.1 0 .3.1.4h.1c.1 0 .2-.1.3-.2.6-1.3-.8-2.8-.8-2.9s-.2-.1-.4.1zm-.1 1.7c-.1-.1-.2-.2-.4-.1-.2 0-.3.2-.2.4 0 .1.7 2.5-2.7 4.4-.1.1-.2.3-.1.4s.2.2.3.2h.2c3.8-2.4 2.9-5.2 2.9-5.3zm-5 5.4c.2 0 .3-.2.2-.3 0-.4.4-1.4 1.5-2.8s.7-3.8.7-3.8c0-.2-.2-.3-.4-.2-.2 0-.3.2-.2.4.2 1 0 2.2-.5 3.2-.8 1.1-1.8 2.5-1.6 3.3 0 .1.1.2.3.2zm-3.4-3.6c.2 0 .3-.2.3-.3 0-1.4.6-2.7 1.5-3.7.1-.1.1-.3 0-.4-.1-.2-.2-.2-.4 0-1.1 1-1.7 2.5-1.7 4.1 0 .1.2.3.3.3zm9.3-5.2c.1-.1.2-.3.1-.4-.5-1-1.7-1.5-2.8-1.2-.2-1.6-1.3-2.9-2.9-3.3-1.4-.2-4 1.1-4.1 1.1s-.1.1-.1.2c-.1.5.1.9.6 1.1h.3s2.1-1.6 3.2-.8c.7.6 1.1 1.5 1.1 2.5 0 .2.1.3.3.3.2 0 .3-.1.3-.3.1-1.2-.4-2.3-1.3-3-1.4-.8-3.3.4-3.9.8 0-.1 0-.2 0-.3 1.1-.6 2.3-1 3.5-1 1.3.4 2.2 1.5 2.5 2.8 0 .2 0 .3.1.5.1.5.4 1 .9 1.3h.1c.1-.1.2-.2.2-.3.1-.2 0-.3-.2-.4s-.3-.3-.4-.6c.8-.3 1.7 0 2.1.8 0 .1.2.2.3.2z"/></svg>

<?xml version="1.0" encoding="utf-8"?>
<!-- Generator: Adobe Illustrator 25.0.0, SVG Export Plug-In . SVG Version: 6.00 Build 0)  -->
<svg version="1.1" id="Layer_1" xmlns="http://www.w3.org/2000/svg" xmlns:xlink="http://www.w3.org/1999/xlink" x="0px" y="0px"
	 viewBox="0 0 12.7 16.6" style="enable-background:new 0 0 12.7 16.6;" xml:space="preserve">
<path d="M0.1,6.9C0.4,5.3,1.4,4,2.9,3.4C3.8,3,4.8,3.1,5.5,3.7l0,0C5.6,3.8,5.6,4,5.5,4.1C5.4,4.3,5.3,4.3,5.1,4.2
	c-0.6-0.5-1.3-0.6-2-0.3C1.9,4.5,1,5.7,0.7,7c-0.3,1.5,0,3.1,0.8,4.5c0,0,0,0.1,0.1,0.1c0,0,0.1,0.5,0.2,1.2C2.1,14.2,3,15.4,4.2,16
	c0.9,0.4,2.5-0.8,3-1.4c0,0,0.1-0.1,0.2-0.1c0.6-0.1,1.2-0.4,1.7-0.9c1-0.7,1.7-1.8,2-3v-0.1c0,0,0-0.1,0.1-0.1
	c0.8-0.8,1.1-1.9,0.9-2.9c-0.4-1.4-2.3-2.1-2.3-2.1c0,0,0,0,0,0C9.6,5.4,9.5,5.2,9.5,5c0.1-0.1,0.2-0.2,0.4-0.2
	c0.1,0,2.2,0.8,2.7,2.5c0.3,1.2-0.1,2.5-1,3.4v0.1c-0.3,1.3-1,2.5-2.1,3.3c-0.5,0.5-1.2,0.8-1.9,1c-0.8,0.8-1.8,1.4-3,1.5
	c-0.2,0-0.4,0-0.6-0.1c-1.4-0.7-2.5-2-2.7-3.6c-0.1-0.6-0.2-1-0.2-1.2C0.2,10.3-0.2,8.6,0.1,6.9z M4.3,5.4C4.7,5,5.2,4.9,5.7,5
	c0.5,0.1,1,0.5,1.2,1c0,0.1,0.1,0.2,0.2,0.3c0.1,0,0.2,0,0.3-0.1c0.5-0.4,1.3-0.4,1.8,0c0.1,0,0.1,0.1,0.2,0.1c0.1,0,0.2,0,0.2-0.1
	c0.1-0.1,0.1-0.3,0-0.4C9.1,5.2,8.1,5.1,7.4,5.5C7,5,6.5,4.6,5.9,4.4c-0.7-0.2-1.5,0-2,0.5C3.8,5,3.8,5.2,3.9,5.3
	C4,5.5,4.2,5.5,4.3,5.4z M10.1,6.6C10,6.7,10,6.9,10.1,7c0.3,0.4,1.1,1.5,0.7,2.2c0,0,0,0,0,0c-0.1,0.1,0,0.3,0.1,0.4
	c0,0,0.1,0,0.1,0c0.1,0,0.2-0.1,0.3-0.2c0.6-1.3-0.8-2.8-0.8-2.9C10.5,6.4,10.3,6.4,10.1,6.6C10.1,6.6,10.1,6.6,10.1,6.6z M10,8.3
	C9.9,8.2,9.8,8.1,9.6,8.2c-0.2,0-0.3,0.2-0.2,0.4c0,0.1,0.7,2.5-2.7,4.4c0,0,0,0,0,0c-0.1,0.1-0.2,0.3-0.1,0.4
	c0.1,0.1,0.2,0.2,0.3,0.2c0,0,0.1,0,0.2,0C10.9,11.2,10,8.4,10,8.3z M5,13.7c0.2,0,0.3-0.2,0.2-0.3C5.2,13,5.6,12,6.7,10.6
	s0.7-3.8,0.7-3.8c0-0.2-0.2-0.3-0.4-0.2c-0.2,0-0.3,0.2-0.2,0.4C7,8,6.8,9.2,6.3,10.2c-0.8,1.1-1.8,2.5-1.6,3.3
	C4.7,13.6,4.8,13.7,5,13.7L5,13.7C5,13.7,5,13.7,5,13.7z M1.6,10.1c0.2,0,0.3-0.2,0.3-0.3c0-1.4,0.6-2.7,1.5-3.7
	c0.1-0.1,0.1-0.3,0-0.4C3.3,5.5,3.2,5.5,3,5.7C1.9,6.7,1.3,8.2,1.3,9.8C1.3,9.9,1.5,10.1,1.6,10.1L1.6,10.1
	C1.6,10.1,1.6,10.1,1.6,10.1z M10.9,4.9C10.9,4.9,10.9,4.9,10.9,4.9C11,4.8,11.1,4.6,11,4.5c-0.5-1-1.7-1.5-2.8-1.2l0,0
	C8,1.7,6.9,0.4,5.3,0c-1.4-0.2-4,1.1-4.1,1.1c-0.1,0-0.1,0.1-0.1,0.2C1,1.8,1.2,2.2,1.7,2.4c0.1,0,0.2,0,0.3,0c0,0,2.1-1.6,3.2-0.8
	c0.7,0.6,1.1,1.5,1.1,2.5c0,0.2,0.1,0.3,0.3,0.3c0,0,0,0,0,0c0.2,0,0.3-0.1,0.3-0.3c0.1-1.2-0.4-2.3-1.3-3C4.2,0.3,2.3,1.5,1.7,1.9
	C1.7,1.8,1.7,1.7,1.7,1.6c1.1-0.6,2.3-1,3.5-1C6.5,1,7.4,2.1,7.7,3.4c0,0.2,0,0.3,0.1,0.5l0,0c0.1,0.5,0.4,1,0.9,1.3h0.1
	C8.9,5.1,9,5,9,4.9c0.1-0.2,0-0.3-0.2-0.4C8.6,4.4,8.5,4.2,8.4,3.9c0.8-0.3,1.7,0,2.1,0.8c0,0.1,0.2,0.2,0.3,0.2
	C10.8,4.9,10.8,4.9,10.9,4.9z"/>
</svg>
